X: 6
T: Cloch Na Ceithre Mhile
R: reel
M: 4/4
L: 1/8
K: Ador
A,A,/A,/A,B, CA,EA, | A,EGE DB,A,B, | G,3 A, B,G,A,B, | G,B,B,/B,/B, B,DCB, |
G,A,A,B, CD (3EFG | ceBc AEAB | (3cBA BG AGEA | GEDB, G,A,A,G, | A,A,/A,/A,B, CA,EA, |
A,EGE DB,A,B, | G,3 A, B,G,A,B, | G,B,B,/B,/B, B,DCB, | G,A,A,B, CD (3EFG | ceBc AEAB |
ceBc AGEA | GEDB, G,A,B,D | EA (3cBA eAcA | DEEG DB,A,B, | (3G,B,G, B,G, DG,B,D | (3Bcd AB GBAG |
(3EFG AB ceBc | AGEA GBB/B/B | BccB AGEA | GEDB, G,A,B,D | EA (3cBA eA (3cBA | CDEG DB,A,B, |
(3G,B,G, B,G, DG,B,D | (3Bcd AB GBAG | (3EFG AB ceBc | AGEA GBB/B/B | cBAB AGEA | GEDB, G,A,A,G, |]


Tune 989	Setting 14190

